assets/badger.svg

<svg xmlns="http://www.w3.org/2000/svg" xmlns:xlink="http://www.w3.org/1999/xlink" width="1080" zoomAndPan="magnify" viewBox="0 0 810 809.999993" height="1080" preserveAspectRatio="xMidYMid meet" version="1.0"><defs><clipPath id="e62e2215dd"><path d="M 82 81 L 741.75 81 L 741.75 741.75 L 82 741.75 Z M 82 81 " clip-rule="nonzero"/></clipPath></defs><g clip-path="url(#e62e2215dd)"><path fill="#212529" d="M 211.429688 81.714844 C 194.074219 81.714844 181.980469 93.753906 174.703125 105.007812 C 167.421875 116.261719 163.167969 128.1875 160.367188 135.464844 C 149.394531 163.738281 149.785156 208.472656 150.515625 240.273438 C 122.351562 277.394531 96.652344 323.417969 82.882812 379.125 C 81.648438 383.941406 83.050781 388.980469 86.464844 392.5625 C 174.925781 484.945312 328.332031 719.980469 328.332031 719.980469 C 329.453125 721.773438 331.019531 723.339844 332.8125 724.460938 C 332.8125 724.460938 340.761719 729.445312 353.863281 733.417969 C 366.964844 737.394531 386.167969 741.035156 412.089844 741.035156 C 438.015625 741.035156 457.21875 737.394531 470.320312 733.417969 C 483.421875 729.445312 491.371094 724.460938 491.371094 724.460938 C 493.164062 723.339844 494.730469 721.773438 495.851562 719.980469 C 495.851562 719.980469 649.257812 484.945312 737.71875 392.5625 C 741.132812 388.980469 742.535156 383.941406 741.300781 379.125 C 727.695312 323.921875 702 278.570312 674.117188 241.617188 C 674.84375 209.761719 675.402344 164.1875 664.261719 135.464844 C 661.464844 128.1875 657.207031 116.261719 649.929688 105.007812 C 642.652344 93.753906 630.558594 81.714844 613.199219 81.714844 C 604.746094 81.714844 601.386719 84.292969 595.734375 87.089844 C 590.078125 89.890625 583.527344 93.585938 576.472656 97.839844 C 563.652344 105.566406 548.925781 115.476562 535.265625 124.714844 L 289.367188 124.714844 C 275.703125 115.476562 260.980469 105.566406 248.160156 97.839844 C 241.105469 93.585938 234.554688 89.890625 228.898438 87.089844 C 223.242188 84.292969 219.882812 81.714844 211.429688 81.714844 Z M 210.085938 110.382812 C 209.863281 110.496094 213.054688 111 216.355469 112.621094 C 220.78125 114.804688 226.769531 118.5 233.378906 122.476562 C 246.648438 130.480469 262.769531 140.785156 277.273438 150.695312 C 277.832031 151.03125 278.449219 151.308594 279.0625 151.589844 C 269.152344 237.921875 237.96875 173.929688 205.160156 192.796875 C 194.410156 199.011719 186.628906 210.378906 179.179688 221.464844 C 179.515625 192.796875 181.53125 159.765625 186.796875 146.214844 C 189.875 138.320312 193.683594 128.074219 198.441406 120.683594 C 202.695312 114.078125 206.277344 110.941406 210.085938 110.382812 Z M 614.542969 110.382812 C 618.238281 110.941406 621.488281 114.078125 625.742188 120.683594 C 630.5 128.074219 634.308594 138.320312 637.386719 146.214844 C 642.707031 159.875 645.003906 193.46875 645.449219 222.359375 C 637.835938 211.050781 630.054688 199.125 619.023438 192.796875 C 586.269531 173.984375 555.085938 237.699219 545.121094 152.039062 C 545.902344 151.644531 546.632812 151.199219 547.359375 150.695312 C 561.859375 140.785156 577.984375 130.480469 591.253906 122.476562 C 597.859375 118.5 603.851562 114.804688 608.273438 112.621094 C 611.578125 111 614.769531 110.496094 614.542969 110.382812 Z M 335.050781 153.382812 L 489.132812 153.382812 C 479.667969 179.582031 455.089844 259.367188 455.089844 393.90625 C 455.089844 551.34375 499.882812 606.660156 524.964844 625.472656 C 504.472656 655.484375 491.035156 675.75 483.757812 686.835938 L 483.757812 669.367188 C 483.699219 664.105469 480.789062 659.289062 476.140625 656.828125 C 476.140625 656.828125 446.691406 640.703125 412.089844 640.703125 C 377.492188 640.703125 348.042969 656.828125 348.042969 656.828125 C 343.394531 659.289062 340.484375 664.105469 340.425781 669.367188 L 340.425781 686.835938 C 333.148438 675.75 319.710938 655.484375 299.21875 625.472656 C 324.300781 606.660156 369.09375 551.34375 369.09375 393.90625 C 369.09375 259.367188 344.515625 179.582031 335.050781 153.382812 Z M 169.328125 262.222656 C 207.0625 300.125 237.578125 352.585938 258.90625 405.550781 C 262.828125 400.402344 268.929688 397.042969 275.929688 397.042969 C 287.796875 397.042969 297.429688 406.671875 297.429688 418.542969 C 297.429688 430.410156 287.796875 440.039062 275.929688 440.039062 C 274.304688 440.039062 272.960938 439.929688 271.449219 439.59375 C 295.246094 511.539062 301.179688 578.835938 285.335938 605.765625 C 235.335938 533.207031 167.3125 438.417969 112.890625 380.023438 C 125.207031 334.222656 145.757812 294.472656 169.328125 262.222656 Z M 654.855469 262.222656 C 678.425781 294.527344 698.917969 334.109375 711.292969 380.023438 C 656.871094 438.417969 588.847656 533.207031 538.847656 605.765625 C 523.003906 578.835938 528.9375 511.539062 552.734375 439.59375 C 551.222656 439.929688 549.878906 440.039062 548.253906 440.039062 C 536.386719 440.039062 526.753906 430.410156 526.753906 418.542969 C 526.753906 406.671875 536.386719 397.042969 548.253906 397.042969 C 555.253906 397.042969 561.355469 400.402344 565.273438 405.550781 C 586.605469 352.585938 617.121094 300.125 654.855469 262.222656 Z M 412.089844 669.367188 C 431.351562 669.367188 446.917969 675.246094 455.089844 678.773438 L 455.089844 707.441406 C 444.734375 709.960938 430.566406 712.367188 412.089844 712.367188 C 393.617188 712.367188 379.449219 709.960938 369.09375 707.441406 L 369.09375 678.773438 C 377.265625 675.246094 392.832031 669.367188 412.089844 669.367188 Z M 412.089844 669.367188 " fill-opacity="1" fill-rule="nonzero"/></g></svg>

<svg xmlns="http://www.w3.org/2000/svg" width="1080" height="1080" viewBox="0 0 810 810">
	<path fill="#212529" d="M211.43 81.715c-17.356 0-29.45 12.039-36.727 23.293-7.281 11.254-11.535 23.18-14.336 30.457-10.972 28.273-10.582 73.008-9.851 104.808-28.164 37.122-53.864 83.145-67.633 138.852-1.235 4.816.168 9.855 3.582 13.438 88.46 92.382 241.867 327.417 241.867 327.417a14.263 14.263 0 0 0 4.48 4.48s7.95 4.985 21.051 8.958c13.102 3.977 32.305 7.617 58.227 7.617 25.926 0 45.129-3.64 58.23-7.617 13.102-3.973 21.051-8.957 21.051-8.957a14.263 14.263 0 0 0 4.48-4.48S649.259 484.944 737.72 392.562c3.414-3.583 4.816-8.622 3.582-13.438C727.695 323.922 702 278.57 674.117 241.617c.727-31.855 1.285-77.43-9.855-106.152-2.797-7.278-7.055-19.203-14.332-30.457-7.278-11.254-19.371-23.293-36.73-23.293-8.454 0-11.813 2.578-17.466 5.375-5.656 2.8-12.207 6.496-19.261 10.75-12.82 7.726-27.547 17.637-41.207 26.875H289.367c-13.664-9.238-28.387-19.149-41.207-26.875-7.055-4.254-13.605-7.95-19.262-10.75-5.656-2.797-9.015-5.375-17.468-5.375Zm-1.344 28.668c-.223.113 2.969.617 6.27 2.238 4.425 2.184 10.414 5.879 17.023 9.856 13.27 8.003 29.39 18.308 43.894 28.218.559.336 1.176.614 1.79.895-9.91 86.332-41.094 22.34-73.903 41.207-10.75 6.215-18.531 17.582-25.98 28.668.336-28.668 2.351-61.7 7.617-75.25 3.078-7.895 6.887-18.14 11.644-25.531 4.254-6.606 7.836-9.743 11.645-10.301Zm404.457 0c3.695.558 6.945 3.695 11.2 10.3 4.757 7.391 8.566 17.637 11.644 25.532 5.32 13.66 7.617 47.254 8.062 76.144-7.613-11.308-15.394-23.234-26.426-29.562-32.753-18.813-63.937 44.902-73.902-40.758.781-.394 1.512-.84 2.238-1.344 14.5-9.91 30.625-20.215 43.895-28.218 6.605-3.977 12.598-7.672 17.02-9.856 3.304-1.621 6.496-2.125 6.269-2.238Zm-279.492 43h154.082c-9.465 26.199-34.043 105.984-34.043 240.523 0 157.438 44.793 212.754 69.875 231.567-20.492 30.011-33.93 50.277-41.207 61.363v-17.469c-.059-5.262-2.969-10.078-7.617-12.539 0 0-29.45-16.125-64.051-16.125-34.598 0-64.047 16.125-64.047 16.125-4.648 2.461-7.559 7.277-7.617 12.54v17.468c-7.278-11.086-20.715-31.352-41.207-61.363 25.082-18.813 69.875-74.13 69.875-231.567 0-134.539-24.578-214.324-34.043-240.523Zm-165.723 108.84c37.734 37.902 68.25 90.363 89.578 143.328 3.922-5.149 10.024-8.508 17.024-8.508 11.867 0 21.5 9.629 21.5 21.5 0 11.867-9.633 21.496-21.5 21.496-1.625 0-2.97-.11-4.48-.445 23.796 71.945 29.73 139.242 13.886 166.172-50-72.559-118.024-167.348-172.445-225.743 12.316-45.8 32.867-85.55 56.437-117.8Zm485.527 0c23.57 32.304 44.063 71.886 56.438 117.8-54.422 58.395-122.445 153.184-172.445 225.743-15.844-26.93-9.91-94.227 13.886-166.172-1.511.336-2.855.445-4.48.445-11.867 0-21.5-9.629-21.5-21.496 0-11.871 9.633-21.5 21.5-21.5 7 0 13.101 3.36 17.02 8.508 21.331-52.965 51.847-105.426 89.581-143.328ZM412.09 669.367c19.262 0 34.828 5.88 43 9.406v28.668c-10.356 2.52-24.524 4.926-43 4.926-18.473 0-32.64-2.406-42.996-4.926v-28.668c8.172-3.527 23.738-9.406 42.996-9.406Zm0 0" />
</svg>
